static/img/logos/influxdata.svg

<svg width="101" height="102" viewBox="0 0 101 102" fill="none" xmlns="http://www.w3.org/2000/svg">
<path d="M100.279 61.2766L90.6019 19.1392C90.0524 16.8334 87.9616 14.5276 85.6558 13.8586L41.4278 0.215048C40.8782 3.70293e-07 40.2211 0 39.5521 0C37.6764 0 35.7051 0.764613 34.379 1.87569L2.69533 31.3611C0.939111 32.9023 0.0550272 35.9846 0.604593 38.1829L10.9508 83.295C11.5003 85.6008 13.5911 87.9186 15.8969 88.5756L57.2576 101.335C57.8072 101.55 58.4643 101.55 59.1333 101.55C61.009 101.55 62.9803 100.786 64.3064 99.6745L98.1883 68.2178C99.9565 66.5691 100.829 63.5943 100.279 61.2766ZM46.0513 10.2267L76.4088 19.5813C77.6155 19.9158 77.6155 20.4653 76.4088 20.7879L60.4595 24.4198C59.2528 24.7543 57.6041 24.2048 56.72 23.3207L45.6092 11.3258C44.6176 10.3462 44.8327 9.90413 46.0513 10.2267ZM64.9635 64.6934C65.298 65.9001 64.5215 66.5691 63.3148 66.2346L30.532 56.1154C29.3254 55.7809 29.0984 54.7893 29.9825 53.9172L55.0713 30.5845C55.9554 29.7004 56.947 30.035 57.2696 31.2416L64.9635 64.6934ZM10.9508 34.981L37.5808 10.2267C38.4649 9.34262 39.8866 9.46209 40.7707 10.3342L54.0797 24.7543C54.9638 25.6384 54.8443 27.0601 53.9722 27.9442L27.3422 52.6986C26.4581 53.5826 25.0364 53.4632 24.1523 52.591L10.8432 38.1829C9.95915 37.1913 10.0786 35.7576 10.9508 34.981ZM17.45 74.263L10.4131 43.344C10.0786 42.1373 10.6282 41.9104 11.4048 42.7944L22.5155 54.7893C23.3996 55.6734 23.7222 57.4296 23.3996 58.6363L18.5491 74.263C18.2146 75.4697 17.665 75.4697 17.45 74.263ZM56.3855 92.3031L21.6195 81.6344C20.4128 81.2999 19.7438 79.9857 20.0783 78.779L25.9085 60.0699C26.243 58.8633 27.5572 58.1942 28.7639 58.5287L63.5299 69.1975C64.7365 69.532 65.4055 70.8462 65.071 72.0528L59.2409 90.762C58.8108 91.9806 57.6041 92.6376 56.3855 92.3031ZM87.1851 66.9992L63.9838 88.5637C63.0998 89.4478 62.6697 89.1133 62.9922 87.9066L67.8308 72.2798C68.1653 71.0732 69.4795 69.8546 70.6861 69.6395L86.6355 66.0076C87.8541 65.685 88.0691 66.2346 87.1851 66.9992ZM89.7178 62.3876L70.5786 66.7842C69.372 67.1187 68.1534 66.3421 67.8308 65.1355L59.6948 29.7124C59.3603 28.5057 60.1369 27.2871 61.3435 26.9646L80.4828 22.568C81.6894 22.2335 82.908 23.0101 83.2306 24.2167L91.3665 59.6398C91.7011 60.954 90.9364 62.1606 89.7178 62.3876Z" fill="white"/>
</svg>

<svg width="101" height="102" viewBox="0 0 101 102" fill="none" xmlns="http://www.w3.org/2000/svg"><path d="M100.279 61.277l-9.677-42.138c-.55-2.306-2.64-4.611-4.946-5.28L41.428.215C40.878 0 40.22 0 39.552 0c-1.876 0-3.847.765-5.173 1.876L2.695 31.36C.94 32.902.055 35.985.605 38.183L10.95 83.295c.55 2.306 2.64 4.624 4.946 5.28l41.36 12.76c.55.215 1.207.215 1.876.215 1.876 0 3.847-.764 5.173-1.876l33.882-31.456c1.769-1.649 2.641-4.624 2.091-6.941zm-54.228-51.05L76.41 19.58c1.206.335 1.206.884 0 1.207l-15.95 3.632c-1.206.334-2.855-.215-3.739-1.1L45.61 11.327c-.992-.98-.777-1.422.441-1.1zm18.912 54.466c.335 1.207-.441 1.876-1.648 1.542l-32.783-10.12c-1.207-.334-1.434-1.326-.55-2.198l25.09-23.333c.883-.884 1.875-.549 2.198.658l7.693 33.451zM10.951 34.981l26.63-24.754c.884-.884 2.306-.765 3.19.107l13.309 14.42c.884.884.764 2.306-.108 3.19L27.342 52.7c-.884.884-2.306.764-3.19-.108L10.843 38.183c-.884-.992-.764-2.425.108-3.202zm6.499 39.282l-7.037-30.919c-.334-1.207.215-1.434.992-.55l11.11 11.995c.885.884 1.207 2.64.885 3.847l-4.85 15.627c-.335 1.207-.885 1.207-1.1 0zm38.936 18.04L21.619 81.634c-1.206-.334-1.875-1.648-1.54-2.855l5.83-18.71c.334-1.206 1.648-1.875 2.855-1.54L63.53 69.198c1.207.334 1.876 1.648 1.541 2.855l-5.83 18.709c-.43 1.219-1.637 1.876-2.855 1.541zM87.186 67L63.983 88.564c-.884.884-1.314.55-.992-.657L67.83 72.28c.334-1.207 1.648-2.425 2.855-2.64l15.95-3.632c1.218-.323 1.433.227.55.991zm2.532-4.611l-19.14 4.396c-1.206.335-2.425-.442-2.747-1.649l-8.136-35.423c-.335-1.206.442-2.425 1.648-2.747l19.14-4.397c1.206-.335 2.425.442 2.748 1.649l8.136 35.423c.334 1.314-.43 2.52-1.65 2.748z" fill="#fff"/></svg>
